!!!COM: Music21
!!!OTL: O santiño
!!!OMV: pezas_marchas_o-santino_o-santino-partitura.musicxml
**kern
*part1
*staff1
*I"Bagpipes
*I'Bag
*clefG^2
*k[]
*M2/4
=1
!LO:TX:a:t=Andante
*MM100
!LO:TX:a:t=[quarter]=100
4.r
8gg
=||
8.cccL
16ggJk
8eeL
8ggJ
=
8.ffL
16eeJk
8ddL
8ggJ
=
8.bbL
16aaJk
8ggL
8ffJ
=
16eeLL
16ff
16ee
16ddJJ
8ccL
8ggJ
=
8.cccL
16ggJk
8eeL
8ggJ
=
8.ffL
16eeJk
8ddL
8ggJ
=
4aa
16ggLL
16ff
16ee
16ddJJ
!!linebreak:original
=
8ccL
16.ccL
32ccJJk
8ccL
8ggJ
=||
8.cccL
16ggJk
8eeL
8ggJ
=
8.ffL
16eeJk
8ddL
8ggJ
=
8.bbL
16aaJk
8ggL
8ffJ
=
16eeLL
16ff
16ee
16ddJJ
8ccL
8ggJ
=
8.cccL
16ggJk
8eeL
8ggJ
=
8.ffL
16eeJk
8ddL
8ggJ
=
4aa
16ggLL
16ff
16ee
16ddJJ
!!linebreak:original
=||
4cc
8r
8cc
=||
8.bL
16ccJk
16ddLL
16cc
16dd
16eeJJ
=
8.ccL
16eeJk
8ggL
8aaJ
=
8.bbL
16aaJk
16ggLL
16aa
16bb
16aaJJ
=
4.gg
8cc
=
8.bL
16ccJk
8ddL
8eeJ
!!linebreak:original
=
8.ccL
16eeJk
8ggL
8aaJ
=
8.bbL
16aaJk
16ggLL
16ff
16ee
16ddJJ
=
4cc
8r
8cc
=||
8.bL
16ccJk
16ddLL
16cc
16dd
16eeJJ
=
8.ccL
16eeJk
8ggL
8aaJ
=
8.bbL
16aaJk
16ggLL
16aa
16bb
16aaJJ
=
4.gg
8cc
=
8.bL
16ccJk
8ddL
8eeJ
!!linebreak:original
=
8.ccL
16eeJk
8ggL
8aaJ
=
8.bbL
16aaJk
16ggLL
16ff
16ee
16ddJJ
=
4cc
4r
=||
4cc
8r
8cc
==
*-
!!!system-decoration: s1,s2
